X: 43341
T: Worn Torn Petticoat, The
R: slide
M: 12/8
K: Adorian
e2d|cBA B2G A2G E2D|EFG A2B c2d e2d|
cBA B2G A2G E2D|EFG A2B A3:|
Bcd e2f g2f e2d|e2a a2g a2g e2d|
Bcd e2f g2f e2d|e2a a2g a2 a2|
Bcd e2f g2f e2d|e2a a2g a2g e2d|
cBA B2G A2G E2D|EFG A2B A3||

